X:453
T:Dovecot Park 
C:Joe Buchanan's Scottish Tome - Page 076.0
I:076 0
C:J. Braidwood
R:Pipe March
Z:Carl Allison
L:1/8
M:6/8
K:Dmaj
f |"D" A>FA (B2A) | "D"A>df (a2g) | "D"f>ef A>df | "D"a>fd "A"(e2f) |
"D"AFA (B2A) | "D"A>df (a2g) | "Em"f>ga "A"e>cA | "D"d3 d<d :|
g | "D"f>ga (d2e) | "D"f>ed (a2f) | "A"e>ce A>Bc | "D"(e<gf) (e2g) |
"D"f>ga (d2e) | "D"f>ed (a2g) | "Em"f>ga "A"e>cA | "D"d3 d<d g |
"D"f>ga (d2e) | "D"f>ed (a2f) | "A"e>ce A>Bc | "D"e<gf (e2f) |
"D"A>FA (B2A) | "D"A>df (a2g) | "Em"f>ga "A"e>cA | "D"d3 d<d |]
f | "D"A>df f>ef | "D"A>df (a2g) | "Em"f>ed A>df | "A7"e3 (ef) |
"D"A>df f>ef | "D"a>fd "G"(B2g) | "D"f>ga "A7"e>cA | "D"d3 d<d :|
(f/>g/) | "D"a>fd A>df | "D"f>ed "G"(B2d) | "D"A>df a>fd | "A7"e3 e (f/>g/) |
"D"a>fd A>df | "D"f>ed "G"(B2g) | "D"f>ga "A7"e>cA | "D"d3 d<d (f/>g/) |
"D"a>fd A>df | "D"f>ed "G"(B2d) | "D"A>df a>fd | "A7"e3 e2f |
"D"A>df f>ef | "D"a>fd "G"(B2g) | "D"f>ga "A7"e>cA | "D"d2 d<d |]

